symbols/currency/euro.svg

<?xml version="1.0" encoding="iso-8859-1"?>
<svg version="1.1" id="Layer1" xmlns="http://www.w3.org/2000/svg" xmlns:xlink="http://www.w3.org/1999/xlink" x="0px" y="0px" viewBox="0 0 512 512" style="enable-background:new 0 0 512 512;" xml:space="preserve">
	<g>
		<g>
			<path d="M256.012,0c-141.156,0-256,114.844-256,256s114.844,256,256,256c141.148,0,255.976-114.844,255.976-256
			S397.16,0,256.012,0z M351.324,391.5c-23.724,13.772-50.784,20.776-78.256,20.776C205.9,412.276,145.248,368,124.532,304h-20.06
			c-11.028,0-19.996-8.976-19.996-20c0-11.028,8.968-20,19.996-20h12.688c-0.164-4-0.244-5.444-0.244-8c0-2.556,0.08-4,0.244-8
			h-12.688c-11.028,0-19.996-8.976-19.996-20c0-11.028,8.968-20,19.996-20h20.06c20.716-64,81.368-107.876,148.532-107.876
			c27.472,0,54.536,7.352,78.256,21.108c9.528,5.54,12.784,17.832,7.252,27.372c-3.568,6.136-10.2,9.976-17.316,9.976
			c-3.496,0-6.956-0.928-10.004-2.688c-17.644-10.232-37.756-15.78-58.192-15.78c-45.916,0-86.768,27.888-105.668,67.888h93.22
			c11.02,0,19.996,8.972,19.996,20c0,11.024-8.976,20-19.996,20H157.188c-0.188,4-0.28,5.304-0.28,8s0.092,4,0.28,8h103.424
			c11.02,0,19.996,8.972,19.996,20c0,11.024-8.976,20-19.996,20h-93.22c18.904,40,59.752,68.292,105.672,68.292
			c20.432,0,40.548-5.26,58.184-15.496c3.048-1.772,6.516-2.64,10.02-2.64c7.108,0,13.744,3.848,17.308,9.996
			C364.108,373.688,360.848,385.972,351.324,391.5z" />
		</g>
	</g>
</svg>

<svg width="512" height="512" viewBox="0 0 512 512" fill="none" xmlns="http://www.w3.org/2000/svg">
    <g clip-path="url(#clip0_576_10497)">
        <circle cx="256.5" cy="255.5" r="206.5" fill="#D9D9D9" />
        <path fill="black" d="M256.012 0C114.856 0 0.0119629 114.844 0.0119629 256C0.0119629 397.156 114.856 512 256.012 512C397.16 512 511.988 397.156 511.988 256C511.988 114.844 397.16 0 256.012 0ZM351.324 391.5C327.6 405.272 300.54 412.276 273.068 412.276C205.9 412.276 145.248 368 124.532 304H104.472C93.444 304 84.476 295.024 84.476 284C84.476 272.972 93.444 264 104.472 264H117.16C116.996 260 116.916 258.556 116.916 256C116.916 253.444 116.996 252 117.16 248H104.472C93.444 248 84.476 239.024 84.476 228C84.476 216.972 93.444 208 104.472 208H124.532C145.248 144 205.9 100.124 273.064 100.124C300.536 100.124 327.6 107.476 351.32 121.232C360.848 126.772 364.104 139.064 358.572 148.604C355.004 154.74 348.372 158.58 341.256 158.58C337.76 158.58 334.3 157.652 331.252 155.892C313.608 145.66 293.496 140.112 273.06 140.112C227.144 140.112 186.292 168 167.392 208H260.612C271.632 208 280.608 216.972 280.608 228C280.608 239.024 271.632 248 260.612 248H157.188C157 252 156.908 253.304 156.908 256C156.908 258.696 157 260 157.188 264H260.612C271.632 264 280.608 272.972 280.608 284C280.608 295.024 271.632 304 260.612 304H167.392C186.296 344 227.144 372.292 273.064 372.292C293.496 372.292 313.612 367.032 331.248 356.796C334.296 355.024 337.764 354.156 341.268 354.156C348.376 354.156 355.012 358.004 358.576 364.152C364.108 373.688 360.848 385.972 351.324 391.5Z" />
    </g>
    <defs>
        <clipPath id="clip0_576_10497">
            <rect fill="white" width="512" height="512" />
        </clipPath>
    </defs>
</svg>
